lite/images/sprite/horoscope-year-t/horoscope-year-t__health~after.svg

<?xml version="1.0" encoding="utf-8"?><svg baseProfile="full" xmlns="http://www.w3.org/2000/svg" height="48" width="43"><path fill="rgb( 100, 185, 235 )" d="M19.885 29.347s0 1.392 0 1.392c-.277.064-.558.13-.865.203-.626.144-1.226.286-1.807.432 0 0 0-2.03 0-2.03S.06 17.135.06 17.135s36.977 0 36.977 0-17.152 12.213-17.152 12.213zm4.654 15.72s-4.656 0-4.656 0 0-1.613 0-1.613 0-2.214 0-2.214 0-.65 0-.65 0-5.562 0-5.562c-.08.017-.15.034-.225.05-.537.125-1.46.34-2.448.608 0 0 0 4.42 0 4.42s0 .65 0 .65 0 2.273 0 2.273 0 2.036 0 2.036-4.654 0-4.654 0c-.62 0-1.13.5-1.13 1.123 0 .625.51 1.127 1.13 1.127 0 0 11.98 0 11.98 0 .62 0 1.124-.502 1.124-1.128 0-.623-.503-1.124-1.125-1.124zm-3.95-1.538s0-2.87 0-2.87c1.13.14 1.52.134 2.404.134.787 0 1.425.636 1.425 1.425 0 .785-.64 1.42-1.426 1.42-.322 0-.84.06-2.405-.11zM37.564 6.353C33.375 2.697 23.063.56 17.757 4.52c-.915.353-1.837 1.065-2.567 2.067-1.496 2.042-1.612 4.495-.263 5.483 1.346.985 3.65.13 5.145-1.915 1.05-1.435 1.402-3.065 1.06-4.255 4.434-1.642 11.644.056 14.56 2.6 2.735 2.387 4.174 5.947 3.755 9.3-.36 2.857-3.41 6.238-6.28 8.323-3.76 2.73-8.65 4.183-12.937 5.244-.112.03-.232.056-.345.084-.277.068-.558.13-.865.2-.626.147-1.226.29-1.807.438-3.563.9-6.202 1.912-6.74 3.988-.376 1.438-.114 2.79.748 3.913 1.27 1.636 2.895 2.364 5.21 2.86 0 0 0-2.92 0-2.92-1.65-.408-2.296-.833-2.952-1.68-.33-.423-.405-.873-.255-1.45.236-.626 2.21-1.283 3.99-1.767.987-.266 1.912-.482 2.448-.605.076-.02.147-.036.226-.05.367-.087.716-.17 1.027-.248 4.557-1.127 9.773-2.686 13.933-5.704 3.264-2.375 6.933-6.318 7.427-10.276.532-4.274-1.27-8.793-4.707-11.795z"/></svg>

<?xml version="1.0" encoding="utf-8"?>
<!DOCTYPE svg PUBLIC "-//W3C//DTD SVG 1.1//EN" "http://www.w3.org/Graphics/SVG/1.1/DTD/svg11.dtd">
<svg version="1.1" baseProfile="full"
 xmlns="http://www.w3.org/2000/svg"
 xmlns:xlink="http://www.w3.org/1999/xlink"
 xmlns:ev="http://www.w3.org/2001/xml-events" 
  height="48px" 
  width="43px" 
>
<path fill="rgb( 100, 185, 235 )"
 d="M19.885,29.347 C19.885,29.347 19.885,30.739 19.885,30.739 C19.608,30.805 19.327,30.872 19.02,30.944 C18.394,31.088 17.794,31.23 17.213,31.376 C17.213,31.376 17.213,29.347 17.213,29.347 C17.213,29.347 0.06099999999998,17.133 0.06099999999998,17.133 C0.06099999999998,17.133 37.037,17.133 37.037,17.133 C37.037,17.133 19.885,29.347 19.885,29.347 ZM24.539,45.067 C24.539,45.067 19.885,45.067 19.885,45.067 C19.885,45.067 19.885,43.454 19.885,43.454 C19.885,43.454 19.885,41.24 19.885,41.24 C19.885,41.24 19.885,40.5890000000001 19.885,40.5890000000001 C19.885,40.5890000000001 19.885,35.028 19.885,35.028 C19.806,35.045 19.735,35.062 19.66,35.079 C19.124,35.203 18.199,35.418 17.213,35.686 C17.213,35.686 17.213,40.106 17.213,40.106 C17.213,40.106 17.213,40.7569999999999 17.213,40.7569999999999 C17.213,40.7569999999999 17.213,43.029 17.213,43.029 C17.213,43.029 17.213,45.067 17.213,45.067 C17.213,45.067 12.559,45.067 12.559,45.067 C11.941,45.067 11.431,45.568 11.431,46.1900000000001 C11.431,46.816 11.941,47.318 12.559,47.318 C12.559,47.318 24.539,47.318 24.539,47.318 C25.161,47.318 25.664,46.816 25.664,46.1900000000001 C25.664,45.568 25.161,45.067 24.539,45.067 ZM20.59,43.529 C20.59,43.529 20.59,40.6609999999999 20.59,40.6609999999999 C21.721,40.801 22.111,40.795 22.995,40.795 C23.782,40.795 24.42,41.431 24.42,42.22 C24.42,43.006 23.782,43.64 22.995,43.64 C22.673,43.64 22.156,43.702 20.59,43.529 ZM37.565,6.35500000000002 C33.376,2.697 23.063,0.55999999999995 17.757,4.51900000000001 C16.842,4.87300000000005 15.92,5.58500000000004 15.19,6.58699999999999 C13.694,8.62900000000002 13.578,11.082 14.927,12.0700000000001 C16.273,13.055 18.577,12.201 20.072,10.155 C21.122,8.72000000000003 21.474,7.09000000000003 21.133,5.89999999999998 C25.566,4.25800000000004 32.776,5.95600000000002 35.692,8.5 C38.427,10.8869999999999 39.866,14.447 39.447,17.8 C39.087,20.657 36.037,24.038 33.166,26.123 C29.407,28.854 24.517,30.306 20.23,31.367 C20.118,31.397 19.998,31.423 19.885,31.451 C19.608,31.5170000000001 19.327,31.581 19.02,31.651 C18.394,31.796 17.794,31.9400000000001 17.213,32.087 C13.65,32.986 11.011,33.999 10.472,36.075 C10.097,37.513 10.359,38.864 11.221,39.9880000000001 C12.488,41.625 14.114,42.353 16.43,42.849 C16.43,42.849 16.43,39.928 16.43,39.928 C14.781,39.521 14.133,39.096 13.477,38.247 C13.147,37.826 13.072,37.376 13.222,36.799 C13.458,36.173 15.433,35.516 17.213,35.032 C18.199,34.766 19.124,34.55 19.66,34.427 C19.735,34.408 19.806,34.391 19.885,34.376 C20.252,34.29 20.601,34.208 20.912,34.129 C25.469,33.003 30.685,31.444 34.845,28.426 C38.109,26.051 41.778,22.1079999999999 42.272,18.15 C42.804,13.876 41.002,9.35699999999997 37.565,6.35500000000002 Z "/></svg>
